X:1
T:Barnby
T:Barnby
T:Joseph Barnby, 1883
T:Public Domain Courtesy of the Cyber Hymnal™
C:Joseph Barnby, 1883
Z:Public Domain
Z:Courtesy of the Cyber Hymnal™
%%score ( 1 2 ) ( 3 4 )
L:1/8
Q:1/4=112
M:4/4
K:A
V:1 treble 
V:2 treble 
V:3 bass 
V:4 bass 
V:1
!f! [EA]2"^Piu lento" | [EA]4 [DG]2 [DF]2 | [DG]4 [DE]2 [DE]2 | A4 [^DG]2 [DA]2 | [EB]6 [DB]2 | %5
 [Cc]4 [F^d]2 [^Df]2 | (e2 B2) [EG]2 [E^A]2 | [EB]4 [^DF]3 [DF] | [EG]6 [^EG]2 | %9
 [^EG]4 [Gc]2 [EG]2 | [GB]4 [FA]2 [FA]2 | [Ac]2 [GB]2 [FA]2 [EG]2 | [EG]4 [^DF]2 [=DG]2 | %13
 A4 [EG]2 [DF]2 | [DG]4 [DE]2 [DE]2 | [CE]2 [EA]2 [^DG]2 [DA]2 | [EB]4 [EB]2 [DB]2 | %17
 [Cc]2 [DB]2 [EA]2 [^EG]2 | [^EG]4 F2 [FA]2 | [EA]4 [FB]2 [GB]2 | A6 |] %21
V:2
 x2 | x8 | x8 | (C2 E2) x4 | x8 | x8 | E4 x4 | x8 | x8 | x8 | x8 | x8 | x8 | (C2 E2) x4 | x8 | x8 | %16
 x8 | x8 | x4 F2 x2 | x8 | A6 |] %21
V:3
 [A,C]2 | [A,C]4 [E,B,]2 [F,A,]2 | [E,B,]4 [G,B,]2 [G,B,]2 | A,4 [F,B,]2 [F,A,]2 | %4
 (A,4 G,2) [E,G,]2 | [A,,A,]4 [A,B,]2 [A,B,]2 | [G,B,]4 [C,E,]2 [C,F,]2 | %7
 [B,,G,]4 [B,,A,]3 [B,,A,] | [E,G,]6 [C,C]2 | [C,C]4 [^E,C]2 [C,C]2 | [F,C]4 [F,C]2 [F,C]2 | %11
 (A,2 B,2) [=A,,C]2 [^A,,C]2 | [B,,B,]4- [B,,B,]2 [E,B,]2 | (A,2 C2) ([E,B,]2 [F,A,]2) | %14
 [E,B,]4 ([G,B,]2 [G,B,]2) | A,4 [F,B,]2 [F,A,]2 | [E,A,]4 [E,G,]2 [E,G,]2 | A,4 [C,A,]2 [C,B,]2 | %18
 [D,B,]4 [D,A,]2 [^D,B,]2 | [E,C]4 [E,D]2 [E,D]2 | [A,,C]6 |] %21
V:4
 x2 | A,,8- | A,,8- | ([A,,A,]2 C2) x4 | E,6 x2 | x8 | x8 | x8 | x8 | x8 | x8 | ^A,,4 x4 | x8 | %13
 [A,,-A,]4 A,,4- | A,,8- | [A,,A,]2 C2 x4 | x8 | (A,,2 B,,2) x4 | x8 | x8 | x6 |] %21

